!! 00000] TT[WS
!!!OTL: Fumu zhuhuen bu yuanyi
!!!ARE: Asia, China, Shanxi Hequ
!! Ethnic Group: Han
!! WI, 35
!!!SCT: J0038
!!!YEM: Copyright 1995, estate of Helmut Schaffrath.
**kern
*ICvox
*Ivox
*M2/4
*k[b-]
*F:
{16dd
16dd
8dd
[4aa
=1
8aa]
16gg
16aa
8gg
16ff
16dd
=2
8cc
8a
8dd
16gg
16cc
=3
2a}
=4
{16dd
16dd
8dd
[4aa
=5
8aa]
16gg
16aa
8gg
16ff
16dd
=6
8cc
8a
8dd
8aa
=7
2dd}
==
!!!AGN: Shange, Shanqu. Qingge
!!!ONB: ESAC (Essen Associative Code) Database: CHINA
!!!AMT: simple duple
!!!AIN: vox
!!!EED: Helmut Schaffrath
!!!EEV: 1.0
*-
!!!ONB: Tied note syntax fixed by Craig Sapp, 2004/05/03/
